X:1
T:Title
%%score { ( 1 3 5 ) | ( 2 4 ) }
L:1/8
M:4/4
K:Bb
V:1 treble nm="Grand Piano"
V:3 treble 
V:5 treble 
V:2 bass 
V:4 bass 
V:1
 z4 z2[Q:1/4=100] [DF]2 | [DF]2 [EG]>[EA] [DB]2 [EA]>[FB] | c4 G2 B2 | A2 A>G E2 F>G | %4
[M:3/4] [DF]6 |[M:1/4] [DF]2 |[M:4/4] [DF]2 [EG]>[EA] [DB]2 [EA]>[FB] | [Ec]4 [EG]2 [GB]2 | %8
 A2 A>B c2 G>A |[M:3/4] [B,DB]6 |[M:1/4] z2 |[M:4/4] [Fd]6[K:bass][K:treble] z2 | [DF]4 z4 | %13
 [Fd]4- (3[Fd]cB (3dcB | c6 z2 | [Fd]6 z2 | [Ge]4[K:bass][K:treble] z4 | %17
 [Fd]6 z2[Q:1/4=97][Q:1/4=94][Q:1/4=91][Q:1/4=88][Q:1/4=84][Q:1/4=81][Q:1/4=78] |[M:3/4] B6 |] %19
V:2
 z4 z2 [B,,B,]2 | [B,,B,]2 [B,,B,]>[B,,F,] [B,,F,]2 [C,F,]>[D,F,] | [E,G,E]4 [E,CE]2 [E,CE]2 | %3
 [F,CE]2 [F,CE]>[F,B,E] [F,A,C]2 [F,A,E]>[F,A,E] |[M:3/4] [B,,B,]6 |[M:1/4] [B,,B,]2 | %6
[M:4/4] [B,,B,]2 [B,,B,]>[B,,F,] [B,,F,]2 [C,F,]>[D,F,] | [E,G,]4 [E,C]2 [E,C]2 | %8
 [F,CF]2 [F,CE]>[F,B,=E] [F,A,_E]2 [F,CE]>[F,CE] |[M:3/4] B,,6 |[M:1/4] F2 | %11
[M:4/4] [B,,B,]2 B,,2 (3B,,[B,,F,][B,,E,] (3[E,G,E][E,G,E][E,B,E] | [B,,B,]2 B,,2 B,,2 B,,2 | %13
 B,2 B,2 (3B,[B,E][B,D] (3[G,B,=E][G,B,E][G,B,E] | F6 z2 | %15
 [B,,B,]2 B,,2 (3z[K:treble] [B,EF][B,DF] (3[B,D_A][B,CA][B,A] | %16
 (3[E,B,]E,E, (3E,E,E, [E,B,E]2 [E,B,]2 | [F,B,]2 F,2 (3F,[F,B,E][F,B,D] (3[F,A,E][F,B,E][F,CE] | %18
[M:3/4] z z/ F,/ (3G,G,G, F,2 |] %19
V:3
 x8 | x8 | x8 | x8 |[M:3/4] x6 |[M:1/4] x2 |[M:4/4] x8 | x8 | x8 |[M:3/4] x6 |[M:1/4] x2 | %11
[M:4/4] z2[K:bass] B,2 (3F,[K:treble][Ec][DB] (3cBG | z2 B,2 [B,DB]2 [B,DB]2 | x8 | %14
 z2 (3A,A,A, A,2 F2 | z2 B,2 (3B,cB (3Bcd | (3z[K:bass] B,B, z2[K:treble] G2 [Ge]2 | %17
 z2 B,2 (3B,cB (3cGA |[M:3/4] z z/ D/ (3EEE D2 |] %19
V:4
 x8 | x8 | x8 | x8 |[M:3/4] x6 |[M:1/4] x2 |[M:4/4] x8 | x8 | x8 |[M:3/4] x6 |[M:1/4] x2 | %11
[M:4/4] x8 | x8 | x8 | [F,A,]2 (3F,F,F, F,2 z2 | x14/3[K:treble] x10/3 | x8 | x8 |[M:3/4] B,,6 |] %19
V:5
 x8 | x8 | x8 | x8 |[M:3/4] x6 |[M:1/4] x2 |[M:4/4] x8 | x8 | x8 |[M:3/4] x6 |[M:1/4] x2 | %11
[M:4/4] x2[K:bass] x8/3[K:treble] x10/3 | x8 | x8 | x8 | x8 | z2[K:bass] (3B,B,B,[K:treble] z4 | %17
 x8 |[M:3/4] [B,D]2 z2 z2 |] %19

